X:1
T:A Little Piece
T:A Little Piece
T:Album for the Young
T:Robert Schumann, Op. 68, No. 5
C:Robert Schumann, Op. 68, No. 5
%%score { 1 | ( 2 3 ) }
L:1/8
M:4/4
K:C
V:1 treble nm="Piano" snm="Pno."
V:2 treble 
V:3 treble 
V:1
!p! (!2!e2 f2 | g2 a2 !1!d2 e2 | f4) (!1!c2 d2 | e2 !4!e2 d2 A2 | !3!c2 !1!B2) (!2!e2 f2 | %5
 g2 a2 d2 e2 | f4) (c2 d2 | e2 !4!e2 d2 B2 | d2 c2) || (!1!B2 c2 | d2 e2 c2 d2 | e4) (!1!c2 d2 | %12
 e2 f2 !2!d2 e2 | !4!f2 !1!d2 !2!e2 f2) | (!4!g2 a2 d2 e2 | f4) (c2 d2 | e2 e2 d2 B2 | %17
 d2 c2) (B2 c2 | d2 e2 c2 d2 | e4) (c2 d2 | e2 f2 d2 e2 | !4!f2 !1!d2 !2!e2 f2) | (!4!g2 a2 d2 e2 | %23
 f4) (!1!c2 d2 | e2 !4!e2 d2 B2 | d2 c2) |] %26
V:2
 (!5!CGDG | EGFG !5!B,G!4!CG | !3!DGDG) (!5!A,G!5!B,G | !4!CGCG !2!D!1!^FDF | G,GG,G) (CGDG | %5
 EGFG B,GCG | DGDG) (A,GB,G | !4!CG!2!EG F,F!5!G,!2!D) | (!1!F2 E2) || (G,G!5!A,G | %10
 B,GCG !5!A,G!4!B,G | !3!CGCG) (!5!A,G!4!B,G | !4!CGDG !5!B,GCG | DGB,G !5!CGDG) | (EGFG B,G^CG | %15
 DGDG) (A,GB,G | CGEG F,FG,D) | (F2 E2) (G,GA,G | B,GCG A,GB,G | CGCG) (A,GB,G | CGDG B,GCG | %21
 DGB,G CGDG) | (EGFG B,G^CG | DGDG) (A,GB,G | CGEG F,FG,D) | (F2 E2) |] %26
V:3
 x4 | x8 | x8 | x8 | x8 | x8 | x8 | x8 | C4 || x4 | x8 | x8 | x8 | x8 | x8 | x8 | x8 | C4 x4 | x8 | %19
 x8 | x8 | x8 | x8 | x8 | x8 | C4 |] %26

